src/assets/img/mastercard.svg

<svg width="99" height="60" viewBox="0 0 99 60" fill="none" xmlns="http://www.w3.org/2000/svg">
<path d="M90.07 29.6767C90.0738 43.1914 79.1209 54.1493 65.6063 54.1529C52.0913 54.1562 41.1337 43.2038 41.1301 29.6892C41.1301 29.6847 41.1301 29.6812 41.1301 29.6767C41.1265 16.1623 52.0794 5.20391 65.5936 5.20032C79.1085 5.19673 90.0664 16.1496 90.07 29.6643C90.07 29.6684 90.07 29.6723 90.07 29.6767Z" fill="#374151"/>
<path d="M32.618 5.20667C19.1835 5.292 8.30566 16.222 8.30566 29.6767C8.30566 43.1839 19.2682 54.1465 32.7757 54.1465C39.1152 54.1465 44.8938 51.7306 49.2421 47.7708C49.2421 47.7708 49.2413 47.7703 49.2402 47.7697H49.2454C50.1358 46.9584 50.9662 46.0829 51.7296 45.1494H46.7163C46.0468 44.3408 45.4384 43.4982 44.8919 42.6288H53.5382C54.064 41.7873 54.5402 40.9135 54.9627 40.0085H43.4643C43.0725 39.1684 42.7322 38.3093 42.4417 37.4377H55.9865C56.8028 34.9985 57.2458 32.389 57.2458 29.6765C57.2458 27.878 57.0508 26.1246 56.6819 24.4364H41.7234C41.9087 23.5676 42.1426 22.7092 42.4215 21.8658H55.9713C55.6683 20.9683 55.3165 20.0936 54.9163 19.2458H43.463C43.8761 18.3631 44.3442 17.5045 44.867 16.6755H53.507C52.932 15.7594 52.2957 14.8842 51.6078 14.0552H46.7905C47.5354 13.1786 48.3553 12.3531 49.2454 11.5834C44.8968 7.62315 39.1166 5.20667 32.7757 5.20667C32.723 5.20667 32.6708 5.20639 32.618 5.20667Z" fill="#424D5E"/>
<path d="M87.615 42.4689C87.7481 42.4689 87.8777 42.5034 88.0041 42.5713C88.1312 42.6393 88.229 42.7373 88.2997 42.8646C88.3703 42.9906 88.4057 43.1234 88.4057 43.2609C88.4057 43.3968 88.3706 43.5283 88.301 43.6542C88.2317 43.7798 88.1339 43.8779 88.008 43.9478C87.8835 44.0165 87.7517 44.0513 87.6147 44.0513C87.4778 44.0513 87.3463 44.0165 87.2209 43.9478C87.0953 43.8776 86.9981 43.7801 86.9274 43.6542C86.8578 43.5283 86.8232 43.3968 86.8232 43.2609C86.8232 43.1234 86.8583 42.9906 86.9293 42.8646C87.0005 42.7373 87.0989 42.6401 87.2251 42.5713C87.3527 42.5034 87.4822 42.4689 87.615 42.4689ZM87.615 42.6001C87.5043 42.6001 87.396 42.6288 87.2902 42.6859C87.1853 42.7431 87.1033 42.824 87.0442 42.9312C86.9842 43.0367 86.9544 43.146 86.9544 43.2609C86.9544 43.3747 86.9837 43.4846 87.0414 43.589C87.1005 43.6931 87.1823 43.7749 87.2867 43.8334C87.3919 43.8917 87.501 43.9204 87.6147 43.9204C87.7291 43.9204 87.8384 43.8917 87.9431 43.8334C88.0475 43.7749 88.129 43.6931 88.1872 43.589C88.245 43.4846 88.2737 43.375 88.2737 43.2609C88.2737 43.146 88.2444 43.0364 88.185 42.9312C88.1262 42.824 88.0439 42.7431 87.9381 42.6859C87.8335 42.6285 87.7258 42.6001 87.615 42.6001ZM87.2682 43.6978V42.8467H87.5614C87.6609 42.8467 87.7332 42.8544 87.778 42.871C87.8227 42.8867 87.8583 42.9135 87.8851 42.953C87.9114 42.9919 87.9249 43.0334 87.9249 43.0775C87.9249 43.14 87.9028 43.1941 87.8581 43.2399C87.8144 43.2858 87.755 43.312 87.6816 43.3175C87.7117 43.33 87.7357 43.3457 87.7545 43.3628C87.789 43.396 87.8304 43.452 87.8801 43.5313L87.9837 43.6978H87.8164L87.7412 43.5639C87.6819 43.4584 87.6341 43.3927 87.5973 43.3656C87.5722 43.3465 87.5355 43.3366 87.4877 43.3366H87.4068V43.6987H87.2687M87.4057 43.2187H87.5725C87.652 43.2187 87.7059 43.2065 87.7349 43.183C87.7642 43.1587 87.7788 43.1278 87.7788 43.0886C87.7788 43.0632 87.7722 43.0405 87.7581 43.0212C87.7437 43.0011 87.7244 42.9867 87.6993 42.9765C87.6747 42.9668 87.6288 42.9613 87.562 42.9613H87.4062V43.2187" fill="#374151"/>
<path d="M40.8967 36.6969L41.2225 34.482C41.0444 34.482 40.7826 34.5591 40.5512 34.5591C39.6442 34.5591 39.531 34.0744 39.6022 33.7204L40.4959 29.2657H41.8746L42.1588 26.7517H40.8594L41.1239 25.2284H38.4059C38.3484 25.2858 36.8682 33.7957 36.8682 34.8325C36.8682 36.3666 37.7293 37.0493 38.9439 37.0385C39.8944 37.0305 40.6354 36.7673 40.8967 36.6969Z" fill="#5A6473"/>
<path d="M41.7217 32.4748C41.7217 36.1567 44.1517 37.0314 46.2224 37.0314C48.1338 37.0314 49.136 36.5884 49.136 36.5884L49.595 34.0753C49.595 34.0753 47.98 34.732 46.6673 34.732C43.8695 34.732 44.3599 32.6458 44.3599 32.6458L49.735 32.6621C49.735 32.6621 50.0772 30.9744 50.0772 30.2865C50.0772 28.5695 49.1418 26.4618 46.2813 26.4618C43.6615 26.4623 41.7217 29.2851 41.7217 32.4748ZM46.2912 28.7949C47.7615 28.7949 47.4903 30.4475 47.4903 30.5814H44.5977C44.5977 30.4102 44.8708 28.7949 46.2912 28.7949Z" fill="#5A6473"/>
<path d="M62.789 36.6961L63.2554 33.856C63.2554 33.856 61.9762 34.497 61.0994 34.497C59.251 34.497 58.5094 33.0857 58.5094 31.5693C58.5094 28.4936 60.0996 26.8012 61.8699 26.8012C63.1977 26.8012 64.2629 27.5466 64.2629 27.5466L64.6882 24.7868C64.6882 24.7868 63.4305 23.8785 62.0767 23.8732C58.0046 23.8572 55.6746 26.6924 55.6746 31.5936C55.6746 34.8422 57.4001 37.0529 60.5092 37.0529C61.3882 37.0529 62.789 36.6961 62.789 36.6961Z" fill="#5A6473"/>
<path d="M26.5664 26.5023C24.7799 26.5023 23.4106 27.0765 23.4106 27.0765L23.0323 29.3209C23.0323 29.3209 24.1626 28.8616 25.8716 28.8616C26.8418 28.8616 27.5515 28.9707 27.5515 29.7592C27.5515 30.2381 27.4648 30.4148 27.4648 30.4148C27.4648 30.4148 26.6993 30.351 26.3447 30.351C23.8011 30.351 21.7246 31.3127 21.7246 34.2119C21.7246 36.4966 23.2775 37.0205 24.24 37.0205C26.0784 37.0205 26.8061 35.8598 26.8481 35.8565L26.8269 36.8198H29.121L30.1445 29.6449C30.1445 26.6001 27.4888 26.5023 26.5664 26.5023ZM26.9636 32.3284C27.0135 32.7664 26.8503 34.8377 25.2811 34.8377C24.472 34.8377 24.2618 34.2191 24.2618 33.854C24.2618 33.1403 24.6493 32.2845 26.5581 32.2845C27.0028 32.2845 26.8887 32.3165 26.9636 32.3284Z" fill="#5A6473"/>
<path d="M32.5827 36.9675C33.1696 36.9675 36.5243 37.1169 36.5243 33.6551C36.5243 30.4181 33.419 31.058 33.419 29.7572C33.419 29.1104 33.9252 28.9066 34.8507 28.9066C35.2177 28.9066 36.6311 29.0235 36.6311 29.0235L36.9595 26.723C36.9595 26.723 36.0448 26.5183 34.5557 26.5183C32.6283 26.5183 30.6719 27.2877 30.6719 29.9202C30.6719 32.9034 33.9341 32.6037 33.9341 33.8603C33.9341 34.699 33.0227 34.7681 32.3201 34.7681C31.1047 34.7681 30.0105 34.3508 30.0066 34.3709L29.6589 36.648C29.7222 36.6673 30.3974 36.9675 32.5827 36.9675Z" fill="#5A6473"/>
<path d="M84.2796 24.4153L83.8088 27.9251C83.8088 27.9251 82.8275 26.5705 81.2923 26.5705C78.4038 26.5705 76.9153 29.449 76.9153 32.7556C76.9153 34.8904 77.9769 36.983 80.1462 36.983C81.7068 36.983 82.5721 35.8946 82.5721 35.8946L82.4575 36.8239H84.9922L86.9825 24.4343L84.2796 24.4153ZM83.1606 31.237C83.1606 32.6131 82.479 34.4516 81.067 34.4516C80.1291 34.4516 79.6894 33.6642 79.6894 32.4289C79.6894 30.4087 80.5966 29.0762 81.7419 29.0762C82.6792 29.0762 83.1606 29.7197 83.1606 31.237Z" fill="#5A6473"/>
<path d="M12.4596 36.8342L14.0456 27.4803L14.2787 36.8342H16.0736L19.4221 27.4803L17.9388 36.8342H20.6061L22.6599 24.4281L18.4229 24.3958L15.9026 31.9915L15.8336 24.4281H11.9506L9.86719 36.8342H12.4596Z" fill="#5A6473"/>
<path d="M52.6013 36.8519C53.3597 32.5395 53.6298 29.1337 55.8414 29.8391C56.159 28.1699 56.916 26.7184 57.2617 26.0119C57.2617 26.0119 57.1524 25.8492 56.4688 25.8492C55.302 25.8492 53.7441 28.2171 53.7441 28.2171L53.977 26.7531H51.5505L49.9255 36.8516L52.6013 36.8519Z" fill="#5A6473"/>
<path d="M68.2462 26.5023C66.4588 26.5023 65.0895 27.0765 65.0895 27.0765L64.7114 29.3209C64.7114 29.3209 65.8424 28.8616 67.5505 28.8616C68.5209 28.8616 69.2304 28.9707 69.2304 29.7592C69.2304 30.2381 69.144 30.4148 69.144 30.4148C69.144 30.4148 68.3787 30.351 68.0241 30.351C65.4803 30.351 63.4041 31.3127 63.4041 34.2119C63.4041 36.4966 64.9567 37.0205 65.9191 37.0205C67.757 37.0205 68.4853 35.8598 68.527 35.8565L68.5055 36.8198H70.8002L71.8234 29.6449C71.8237 26.6001 69.168 26.5023 68.2462 26.5023ZM68.6427 32.3284C68.6924 32.7664 68.5292 34.8377 66.9603 34.8377C66.1506 34.8377 65.9407 34.2191 65.9407 33.854C65.9407 33.1403 66.3279 32.2845 68.237 32.2845C68.6819 32.2845 68.5682 32.3165 68.6427 32.3284Z" fill="#5A6473"/>
<path d="M74.4645 36.8519C74.8809 33.6793 75.6517 29.2252 77.7042 29.8391C78.0215 28.17 77.7155 28.1744 77.0323 28.1744C75.8646 28.1744 75.6061 28.2169 75.6061 28.2169L75.8392 26.7529H73.4131L71.7881 36.8516L74.4645 36.8519Z" fill="#5A6473"/>
<path d="M41.5749 35.9068L41.9011 33.6922C41.723 33.6922 41.4609 33.7684 41.2297 33.7684C40.3228 33.7684 40.2228 33.2862 40.2805 32.9297L41.0132 28.411H42.3916L42.7244 25.9613H41.4247L41.6893 24.438H39.0839C39.0264 24.4954 37.5459 33.0056 37.5459 34.0418C37.5459 35.5759 38.4073 36.2592 39.6219 36.2481C40.573 36.2401 41.3137 35.9769 41.5749 35.9068Z" fill="white"/>
<path d="M42.4006 31.6845C42.4006 35.3664 44.8309 36.2413 46.9014 36.2413C48.8125 36.2413 49.6534 35.814 49.6534 35.814L50.1124 33.3012C50.1124 33.3012 48.6587 33.9416 47.3457 33.9416C44.5481 33.9416 45.0381 31.8557 45.0381 31.8557H50.3328C50.3328 31.8557 50.6747 30.1675 50.6747 29.4795C50.6747 27.7629 49.8202 25.6711 46.9597 25.6711C44.3399 25.6717 42.4006 28.4944 42.4006 31.6845ZM46.9696 28.0045C48.4399 28.0045 48.1687 29.6568 48.1687 29.7905H45.2761C45.2761 29.6198 45.5495 28.0045 46.9696 28.0045Z" fill="white"/>
<path d="M63.4681 35.9056L63.9343 33.0652C63.9343 33.0652 62.6559 33.7062 61.7785 33.7062C59.9303 33.7062 59.1891 32.295 59.1891 30.7788C59.1891 27.7031 60.7793 26.011 62.5495 26.011C63.8771 26.011 64.9426 26.7564 64.9426 26.7564L65.3679 23.9966C65.3679 23.9966 63.7879 23.3573 62.4335 23.3573C59.4258 23.3573 56.4998 25.9666 56.4998 30.8669C56.4998 34.1163 58.0797 36.2625 61.1888 36.2625C62.0679 36.2627 63.4681 35.9056 63.4681 35.9056Z" fill="white"/>
<path d="M27.2454 25.7118C25.4589 25.7118 24.0893 26.286 24.0893 26.286L23.7113 28.5304C23.7113 28.5304 24.8416 28.0711 26.5503 28.0711C27.5205 28.0711 28.2302 28.1802 28.2302 28.9687C28.2302 29.4475 28.1432 29.6243 28.1432 29.6243C28.1432 29.6243 27.378 29.5602 27.0236 29.5602C24.7704 29.5602 22.4033 30.5218 22.4033 33.4211C22.4033 35.7056 23.9562 36.2297 24.9187 36.2297C26.7569 36.2297 27.5492 35.037 27.5915 35.0334L27.5056 36.029H29.7997L30.8232 28.8538C30.8232 25.8098 28.1678 25.7118 27.2454 25.7118ZM27.8036 31.5539C27.8533 31.9922 27.5288 34.0466 25.9601 34.0466C25.1509 34.0466 24.9405 33.4285 24.9405 33.0629C24.9405 32.3498 25.328 31.4937 27.2371 31.4937C27.6812 31.4942 27.7287 31.5417 27.8036 31.5539Z" fill="white"/>
<path d="M33.2617 36.1772C33.8485 36.1772 37.2034 36.3264 37.2034 32.8646C37.2034 29.6281 34.0979 30.2675 34.0979 28.9673C34.0979 28.3199 34.6041 28.1161 35.5293 28.1161C35.8966 28.1161 37.3098 28.2329 37.3098 28.2329L37.6384 25.9324C37.6384 25.9324 36.7237 25.7278 35.2346 25.7278C33.3072 25.7278 31.3509 26.4972 31.3509 29.1296C31.3509 32.1126 34.613 31.8132 34.613 33.0698C34.613 33.9085 33.7016 33.9767 32.9993 33.9767C31.7839 33.9767 30.6894 33.5597 30.6856 33.5796L30.3381 35.8569C30.4011 35.8762 31.0761 36.1772 33.2617 36.1772Z" fill="white"/>
<path d="M85.0492 23.6472L84.4872 27.1344C84.4872 27.1344 83.5065 25.7798 81.9713 25.7798C79.584 25.7798 77.5942 28.658 77.5942 31.9652C77.5942 34.1 78.6556 36.1917 80.8252 36.1917C82.3858 36.1917 83.251 35.1036 83.251 35.1036L83.1364 36.0329H85.6706L87.6609 23.6431L85.0492 23.6472ZM83.8393 30.4465C83.8393 31.8227 83.158 33.6609 81.7454 33.6609C80.8078 33.6609 80.3684 32.8738 80.3684 31.6385C80.3684 29.6186 81.2756 28.2858 82.4203 28.2858C83.3582 28.2855 83.8393 28.9298 83.8393 30.4465Z" fill="white"/>
<path d="M13.1383 36.0438L14.7243 26.69L14.9571 36.0438H16.7522L20.1008 26.69L18.6175 36.0438H21.2847L23.3389 23.6375H19.2143L16.6456 31.2495L16.512 23.6375H12.7099L10.6262 36.0438H13.1383Z" fill="white"/>
<path d="M53.2803 36.0609C54.0386 31.7483 54.1792 28.2464 55.989 28.8874C56.3057 27.2183 56.6114 26.5726 56.9572 25.8661C56.9572 25.8661 56.7951 25.8322 56.4548 25.8322C55.288 25.8322 54.4236 27.4262 54.4236 27.4262L54.6559 25.9622H52.23L50.6047 36.0609H53.2803Z" fill="white"/>
<path d="M69.4795 25.7118C67.693 25.7118 66.3234 26.286 66.3234 26.286L65.9456 28.5304C65.9456 28.5304 67.076 28.0711 68.7847 28.0711C69.7549 28.0711 70.4641 28.1802 70.4641 28.9687C70.4641 29.4475 70.3776 29.6243 70.3776 29.6243C70.3776 29.6243 69.6123 29.5602 69.2577 29.5602C67.0048 29.5602 64.6377 30.5218 64.6377 33.4211C64.6377 35.7056 66.1903 36.2297 67.1528 36.2297C68.991 36.2297 69.7833 35.037 69.8253 35.0334L69.7399 36.029C69.7399 36.029 72.0333 36.029 72.0341 36.029L73.0573 28.8538C73.0576 25.8098 70.4019 25.7118 69.4795 25.7118ZM70.0385 31.5539C70.0882 31.9922 69.7634 34.0466 68.1942 34.0466C67.385 34.0466 67.1751 33.4285 67.1751 33.0629C67.1751 32.3498 67.5626 31.4937 69.4715 31.4937C69.9156 31.4942 69.9628 31.5417 70.0385 31.5539Z" fill="white"/>
<path d="M75.1543 36.0609C75.9129 31.7483 76.0535 28.2464 77.8627 28.8874C78.18 27.2183 78.486 26.5726 78.8315 25.8661C78.8315 25.8661 78.6694 25.8322 78.3291 25.8322C77.1623 25.8322 76.2979 27.4262 76.2979 27.4262L76.5301 25.9622H74.1043L72.479 36.0609H75.1543Z" fill="white"/>
<path d="M87.6048 34.5028C87.7371 34.5028 87.8675 34.5368 87.9931 34.6058C88.1199 34.6727 88.2185 34.771 88.2892 34.8983C88.3602 35.0248 88.395 35.1565 88.395 35.2943C88.395 35.4305 88.3602 35.5619 88.2903 35.6876C88.221 35.8132 88.1235 35.9118 87.9978 35.9811C87.8724 36.0502 87.741 36.085 87.6046 36.085C87.467 36.085 87.3356 36.0502 87.2099 35.9811C87.0845 35.9113 86.9873 35.8132 86.9177 35.6876C86.847 35.5619 86.8125 35.4305 86.8125 35.2943C86.8125 35.1565 86.8476 35.0248 86.9186 34.8983C86.9898 34.771 87.0887 34.6732 87.2149 34.6058C87.3422 34.5368 87.4726 34.5028 87.6048 34.5028ZM87.6048 34.6332C87.4941 34.6332 87.3858 34.6619 87.2801 34.7196C87.1746 34.7759 87.0925 34.8574 87.0332 34.964C86.9741 35.0692 86.9442 35.1794 86.9442 35.2938C86.9442 35.4081 86.973 35.5175 87.0307 35.6218C87.0895 35.726 87.1712 35.8077 87.2767 35.8665C87.3811 35.924 87.4902 35.953 87.6048 35.953C87.7186 35.953 87.8285 35.924 87.9329 35.8665C88.0373 35.8077 88.1191 35.726 88.1771 35.6218C88.2353 35.5166 88.2638 35.4081 88.2638 35.2938C88.2638 35.1794 88.2342 35.0692 88.1751 34.964C88.1163 34.8574 88.0343 34.7759 87.9282 34.7196C87.8233 34.6622 87.7159 34.6332 87.6048 34.6332ZM87.2582 35.7312V34.8798H87.5513C87.651 34.8798 87.7239 34.8878 87.7681 34.9041C87.8128 34.9193 87.8479 34.9466 87.8752 34.9861C87.902 35.0253 87.9155 35.0665 87.9155 35.1107C87.9155 35.1728 87.8929 35.2272 87.8481 35.273C87.8045 35.3189 87.7457 35.3454 87.6722 35.3504C87.7015 35.3631 87.7258 35.3783 87.7446 35.3954C87.7785 35.4291 87.8205 35.4854 87.8702 35.5641L87.9743 35.7309H87.8062L87.7313 35.597C87.6717 35.4912 87.6239 35.4255 87.5874 35.3987C87.5623 35.3791 87.5256 35.3694 87.4772 35.3694H87.3969V35.7315L87.2582 35.7312ZM87.3958 35.2521H87.5626C87.6424 35.2521 87.6962 35.2402 87.725 35.2164C87.754 35.1932 87.7692 35.1615 87.7692 35.122C87.7692 35.0969 87.7623 35.0742 87.7484 35.0551C87.7344 35.0347 87.7147 35.0201 87.6896 35.0099C87.6645 35.0002 87.6195 34.9952 87.5521 34.9952H87.396V35.2521" fill="white"/>
</svg>

<svg xmlns="http://www.w3.org/2000/svg" width="99" height="60" fill="none"><path fill="#374151" d="M90.07 29.677c.004 13.514-10.95 24.472-24.464 24.476-13.515.003-24.472-10.95-24.476-24.464v-.012C41.126 16.162 52.08 5.204 65.594 5.2c13.515-.003 24.472 10.95 24.476 24.464z"/><path fill="#424D5E" d="M32.618 5.207c-13.435.085-24.312 11.015-24.312 24.47 0 13.507 10.962 24.47 24.47 24.47 6.34 0 12.118-2.416 16.466-6.376l-.002-.001h.005q1.337-1.22 2.485-2.62h-5.014a24 24 0 0 1-1.824-2.521h8.646a25 25 0 0 0 1.425-2.62H43.464c-.392-.84-.732-1.7-1.022-2.571h13.545a24.4 24.4 0 0 0 1.259-7.762c0-1.798-.195-3.551-.564-5.24H41.723q.28-1.304.699-2.57h13.55a25 25 0 0 0-1.056-2.62H43.463q.62-1.325 1.404-2.57h8.64a24.5 24.5 0 0 0-1.9-2.62h-4.816a23 23 0 0 1 2.454-2.473 24.38 24.38 0 0 0-16.47-6.376z"/><path fill="#374151" d="M87.615 42.469q.2 0 .39.102a.72.72 0 0 1 .295.294.8.8 0 0 1 .001.79.74.74 0 0 1-.293.293.8.8 0 0 1-.787 0 .75.75 0 0 1-.294-.294.8.8 0 0 1 .002-.79.74.74 0 0 1 .296-.293.8.8 0 0 1 .39-.102m0 .131a.7.7 0 0 0-.325.086.6.6 0 0 0-.246.245.656.656 0 0 0 .57.99.67.67 0 0 0 .573-.332.67.67 0 0 0-.002-.658.663.663 0 0 0-.57-.331m-.347 1.098v-.851h.293q.15 0 .217.024a.2.2 0 0 1 .107.082q.04.058.04.124a.22.22 0 0 1-.067.163.26.26 0 0 1-.176.078.3.3 0 0 1 .072.045q.052.05.126.168l.104.167h-.168l-.075-.134a.7.7 0 0 0-.144-.198.18.18 0 0 0-.11-.03h-.08v.363zm.137-.48h.166q.12 0 .163-.036a.12.12 0 0 0 .044-.094.1.1 0 0 0-.02-.068.13.13 0 0 0-.06-.044.4.4 0 0 0-.137-.016h-.156z"/><path fill="#5A6473" d="m40.897 36.697.325-2.215c-.178 0-.44.077-.67.077-.908 0-1.021-.485-.95-.839l.894-4.454h1.379l.284-2.514h-1.3l.265-1.524h-2.718c-.058.058-1.538 8.568-1.538 9.605 0 1.534.861 2.216 2.076 2.206.95-.008 1.691-.272 1.953-.342M41.722 32.475c0 3.682 2.43 4.556 4.5 4.556 1.912 0 2.914-.443 2.914-.443l.459-2.513s-1.615.657-2.928.657c-2.797 0-2.307-2.086-2.307-2.086l5.375.016s.342-1.688.342-2.375c0-1.717-.935-3.825-3.796-3.825-2.62 0-4.56 2.823-4.56 6.013m4.57-3.68c1.47 0 1.198 1.652 1.198 1.786h-2.892c0-.17.273-1.786 1.693-1.786M62.789 36.696l.466-2.84s-1.279.641-2.156.641c-1.848 0-2.59-1.411-2.59-2.928 0-3.075 1.59-4.768 3.36-4.768 1.329 0 2.394.746 2.394.746l.425-2.76s-1.258-.909-2.611-.914c-4.072-.016-6.402 2.82-6.402 7.72 0 3.25 1.725 5.46 4.834 5.46.88 0 2.28-.357 2.28-.357M26.566 26.502c-1.786 0-3.155.575-3.155.575l-.379 2.244s1.13-.46 2.84-.46c.97 0 1.68.11 1.68.898 0 .48-.087.656-.087.656s-.766-.064-1.12-.064c-2.544 0-4.62.962-4.62 3.86 0 2.286 1.552 2.81 2.515 2.81 1.838 0 2.566-1.161 2.608-1.165l-.021.964h2.294l1.024-7.175c0-3.045-2.656-3.143-3.579-3.143m.398 5.826c.05.438-.114 2.51-1.683 2.51-.809 0-1.02-.619-1.02-.984 0-.714.388-1.57 2.297-1.57.445 0 .33.032.406.044M32.583 36.968c.587 0 3.941.149 3.941-3.313 0-3.237-3.105-2.597-3.105-3.898 0-.647.506-.85 1.432-.85.367 0 1.78.116 1.78.116l.328-2.3s-.914-.205-2.403-.205c-1.928 0-3.884.77-3.884 3.402 0 2.983 3.262 2.684 3.262 3.94 0 .839-.911.908-1.614.908-1.215 0-2.31-.417-2.313-.397l-.348 2.277c.063.02.738.32 2.924.32M84.28 24.415l-.471 3.51s-.981-1.355-2.517-1.355c-2.888 0-4.377 2.879-4.377 6.186 0 2.134 1.062 4.227 3.231 4.227 1.56 0 2.426-1.088 2.426-1.088l-.115.929h2.535l1.99-12.39zm-1.12 6.822c0 1.376-.681 3.215-2.093 3.215-.938 0-1.378-.788-1.378-2.023 0-2.02.908-3.353 2.053-3.353.937 0 1.419.644 1.419 2.161M12.46 36.834l1.586-9.354.233 9.354h1.795l3.348-9.354-1.483 9.354h2.667l2.054-12.406-4.237-.032-2.52 7.595-.07-7.563h-3.882L9.867 36.834z"/><path fill="#5A6473" d="M52.601 36.852c.759-4.312 1.029-7.718 3.24-7.013.318-1.67 1.075-3.12 1.42-3.827 0 0-.109-.163-.792-.163-1.167 0-2.725 2.368-2.725 2.368l.233-1.464h-2.426l-1.626 10.099zM68.246 26.502c-1.787 0-3.156.575-3.156.575l-.379 2.244s1.131-.46 2.84-.46c.97 0 1.68.11 1.68.898 0 .48-.087.656-.087.656s-.765-.064-1.12-.064c-2.544 0-4.62.962-4.62 3.86 0 2.286 1.553 2.81 2.515 2.81 1.838 0 2.566-1.161 2.608-1.165l-.022.964H70.8l1.023-7.175c0-3.045-2.655-3.143-3.577-3.143m.397 5.826c.05.438-.114 2.51-1.683 2.51-.81 0-1.02-.619-1.02-.984 0-.714.388-1.57 2.297-1.57.445 0 .331.032.406.044M74.465 36.852c.416-3.173 1.187-7.627 3.24-7.013.317-1.669.01-1.665-.673-1.665-1.167 0-1.426.043-1.426.043l.233-1.464h-2.426l-1.625 10.099z"/><path fill="#fff" d="m41.575 35.907.326-2.215c-.178 0-.44.076-.671.076-.907 0-1.007-.482-.95-.838l.733-4.519h1.379l.332-2.45h-1.3l.265-1.523h-2.605c-.058.057-1.538 8.568-1.538 9.604 0 1.534.861 2.217 2.076 2.206.951-.008 1.692-.271 1.953-.341M42.4 31.685c0 3.681 2.43 4.556 4.501 4.556 1.911 0 2.752-.427 2.752-.427l.46-2.513s-1.454.64-2.767.64c-2.798 0-2.308-2.085-2.308-2.085h5.295s.342-1.689.342-2.376c0-1.717-.855-3.809-3.715-3.809-2.62 0-4.56 2.823-4.56 6.014m4.57-3.68c1.47 0 1.199 1.652 1.199 1.786h-2.893c0-.171.273-1.787 1.694-1.787M63.468 35.906l.466-2.84s-1.278.64-2.155.64c-1.849 0-2.59-1.411-2.59-2.927 0-3.076 1.59-4.768 3.36-4.768 1.328 0 2.394.745 2.394.745l.425-2.76s-1.58-.639-2.934-.639c-3.008 0-5.934 2.61-5.934 7.51 0 3.25 1.58 5.396 4.689 5.396.879 0 2.28-.357 2.28-.357M27.245 25.712c-1.786 0-3.156.574-3.156.574l-.378 2.244s1.13-.459 2.84-.459c.97 0 1.68.11 1.68.898 0 .479-.088.655-.088.655s-.765-.064-1.12-.064c-2.253 0-4.62.962-4.62 3.861 0 2.285 1.553 2.809 2.516 2.809 1.838 0 2.63-1.193 2.672-1.197l-.085.996H29.8l1.023-7.175c0-3.044-2.655-3.142-3.578-3.142m.559 5.842c.05.438-.275 2.493-1.844 2.493-.81 0-1.02-.618-1.02-.984 0-.713.388-1.57 2.297-1.57.444.001.492.049.567.06M33.262 36.177c.587 0 3.941.15 3.941-3.312 0-3.237-3.105-2.598-3.105-3.898 0-.647.506-.85 1.431-.85.368 0 1.78.116 1.78.116l.33-2.3s-.915-.205-2.404-.205c-1.928 0-3.884.77-3.884 3.402 0 2.983 3.262 2.683 3.262 3.94 0 .838-.911.907-1.614.907-1.215 0-2.31-.417-2.313-.397l-.348 2.277c.063.02.738.32 2.924.32M85.05 23.647l-.563 3.487s-.98-1.354-2.516-1.354c-2.387 0-4.377 2.878-4.377 6.185 0 2.135 1.062 4.227 3.231 4.227 1.56 0 2.426-1.088 2.426-1.088l-.115.929h2.535l1.99-12.39zm-1.21 6.8c0 1.376-.682 3.214-2.095 3.214-.937 0-1.377-.787-1.377-2.023 0-2.02.908-3.352 2.052-3.352.938 0 1.42.644 1.42 2.16M13.138 36.044l1.586-9.354.233 9.354h1.795l3.349-9.354-1.483 9.354h2.667l2.054-12.406h-4.125l-2.568 7.611-.134-7.611H12.71l-2.084 12.406zM53.28 36.06c.759-4.312.9-7.814 2.709-7.173.317-1.669.622-2.314.968-3.02 0 0-.162-.035-.502-.035-1.167 0-2.031 1.594-2.031 1.594l.232-1.464H52.23l-1.625 10.099zM69.48 25.712c-1.787 0-3.157.574-3.157.574l-.377 2.244s1.13-.459 2.839-.459c.97 0 1.68.11 1.68.898 0 .479-.087.655-.087.655s-.766-.064-1.12-.064c-2.253 0-4.62.962-4.62 3.861 0 2.285 1.552 2.809 2.515 2.809 1.838 0 2.63-1.193 2.672-1.197l-.085.996h2.294l1.023-7.175c0-3.044-2.655-3.142-3.578-3.142m.558 5.842c.05.438-.275 2.493-1.844 2.493-.809 0-1.019-.618-1.019-.984 0-.713.388-1.57 2.297-1.57.444.001.49.049.567.06M75.154 36.06c.759-4.312.9-7.814 2.709-7.173.317-1.669.623-2.314.969-3.02 0 0-.163-.035-.503-.035-1.167 0-2.031 1.594-2.031 1.594l.232-1.464h-2.426L72.48 36.061zM87.605 34.503q.2 0 .388.103a.796.796 0 0 1 .297 1.082.73.73 0 0 1-.292.293.8.8 0 0 1-.788 0 .74.74 0 0 1-.292-.293.791.791 0 0 1 .687-1.185m0 .13a.67.67 0 0 0-.572.331.67.67 0 0 0-.002.658q.087.156.246.245a.67.67 0 0 0 .656 0 .666.666 0 0 0 .242-.903.6.6 0 0 0-.247-.244.67.67 0 0 0-.323-.087m-.347 1.098v-.851h.293q.15 0 .217.024.067.023.107.082t.04.125a.23.23 0 0 1-.067.162.26.26 0 0 1-.176.077q.045.02.073.045.05.05.125.17l.104.166h-.168l-.075-.134a.7.7 0 0 0-.144-.198.18.18 0 0 0-.11-.03h-.08v.362zm.138-.479h.167q.12 0 .162-.036a.12.12 0 0 0 .044-.094.1.1 0 0 0-.02-.067.13.13 0 0 0-.06-.045.4.4 0 0 0-.137-.015h-.156z"/></svg>
